docsearch/static/img/logos/ant-design.svg

<svg height="200" viewBox="0 0 200 200" width="200" xmlns="http://www.w3.org/2000/svg" xmlns:xlink="http://www.w3.org/1999/xlink"><linearGradient id="a" x1="62.102327%" x2="108.19718%" y1="0%" y2="37.863576%"><stop offset="0" stop-color="#4285eb"/><stop offset="1" stop-color="#2ec7ff"/></linearGradient><linearGradient id="b" x1="69.644116%" x2="54.042898%" y1="0%" y2="108.456714%"><stop offset="0" stop-color="#29cdff"/><stop offset=".378600687" stop-color="#148eff"/><stop offset="1" stop-color="#0a60ff"/></linearGradient><linearGradient id="c" x1="69.690817%" x2="16.722898%" y1="-12.974359%" y2="117.391248%"><stop offset="0" stop-color="#fa816e"/><stop offset=".41472606" stop-color="#f74a5c"/><stop offset="1" stop-color="#f51d2c"/></linearGradient><linearGradient id="d" x1="68.127987%" x2="30.440091%" y1="-35.690574%" y2="114.942679%"><stop offset="0" stop-color="#fa8e7d"/><stop offset=".512635191" stop-color="#f74a5c"/><stop offset="1" stop-color="#f51d2c"/></linearGradient><g fill="none" fill-rule="evenodd"><g fill-rule="nonzero"><path d="m91.5880863 4.17652823-87.40812086 87.33624457c-4.69920605 4.6953418-4.69920605 12.2791122 0 16.9744542l87.40812086 87.336245c4.699206 4.695342 12.2892177 4.695342 16.9884237 0l36.648977-36.61884c4.208482-4.205021 4.208482-11.022708 0-15.227729-4.208482-4.205022-11.03178-4.205022-15.240262 0l-27.783295 27.760449c-1.169625 1.168663-2.9447691 1.168663-4.1143941 0l-69.8016279-69.74423c-1.1696249-1.168663-1.1696249-2.942347 0-4.1110102l69.8016279-69.7442295c1.169625-1.1686632 2.9447691-1.1686632 4.1143941 0l27.783295 27.7604491c4.208482 4.2050214 11.03178 4.2050214 15.240262 0s4.208482-11.0227082 0-15.2277296l-36.644937-36.61485588c-4.718501-4.59373277-12.3112882-4.55654383-16.9924637.12078231z" fill="url(#a)"/><path d="m91.5880863 4.17652823-87.40812086 87.33624457c-4.69920605 4.6953418-4.69920605 12.2791122 0 16.9744542l87.40812086 87.336245c4.699206 4.695342 12.2892177 4.695342 16.9884237 0l36.648977-36.61884c4.208482-4.205021 4.208482-11.022708 0-15.227729-4.208482-4.205022-11.03178-4.205022-15.240262 0l-27.783295 27.760449c-1.169625 1.168663-2.9447691 1.168663-4.1143941 0l-69.8016279-69.74423c-1.1696249-1.168663-1.1696249-2.942347 0-4.1110102l69.8016279-69.7442295c2.9123281-2.5106987 7.6641061-7.5960583 14.6421161-8.7854336 5.185933-.8839226 10.855567 1.0615752 17.008902 5.8364937-4.113891-4.1105132-11.166559-11.154912-21.158004-21.13319648-4.718501-4.59373277-12.3112882-4.55654383-16.9924637.12078231z" fill="url(#b)"/><path d="m153.685633 135.854579c4.208482 4.205021 11.031779 4.205021 15.240261 0l27.034083-27.011853c4.699206-4.695342 4.699206-12.2791127.00055-16.9739066l-27.26975-27.1507035c-4.218445-4.2000301-11.043909-4.1939734-15.254882.0135367-4.208482 4.2050214-4.208482 11.0227081 0 15.2277295l18.41814 18.4029944c1.169625 1.1686631 1.169625 2.9423475 0 4.1110105l-18.168402 18.153462c-4.208483 4.205021-4.208483 11.022708 0 15.22773z" fill="url(#c)"/></g><ellipse cx="100.519339" cy="100.436681" fill="url(#d)" rx="23.600193" ry="23.580786"/></g></svg>

<?xml version="1.0" encoding="UTF-8" standalone="no"?>
<svg width="200px" height="200px" viewBox="0 0 200 200" version="1.1" xmlns="http://www.w3.org/2000/svg" xmlns:xlink="http://www.w3.org/1999/xlink">
    <!-- Generator: Sketch 47.1 (45422) - http://www.bohemiancoding.com/sketch -->
    <title>Group 28 Copy 5</title>
    <desc>Created with Sketch.</desc>
    <defs>
        <linearGradient x1="62.1023273%" y1="0%" x2="108.19718%" y2="37.8635764%" id="linearGradient-1">
            <stop stop-color="#4285EB" offset="0%"></stop>
            <stop stop-color="#2EC7FF" offset="100%"></stop>
        </linearGradient>
        <linearGradient x1="69.644116%" y1="0%" x2="54.0428975%" y2="108.456714%" id="linearGradient-2">
            <stop stop-color="#29CDFF" offset="0%"></stop>
            <stop stop-color="#148EFF" offset="37.8600687%"></stop>
            <stop stop-color="#0A60FF" offset="100%"></stop>
        </linearGradient>
        <linearGradient x1="69.6908165%" y1="-12.9743587%" x2="16.7228981%" y2="117.391248%" id="linearGradient-3">
            <stop stop-color="#FA816E" offset="0%"></stop>
            <stop stop-color="#F74A5C" offset="41.472606%"></stop>
            <stop stop-color="#F51D2C" offset="100%"></stop>
        </linearGradient>
        <linearGradient x1="68.1279872%" y1="-35.6905737%" x2="30.4400914%" y2="114.942679%" id="linearGradient-4">
            <stop stop-color="#FA8E7D" offset="0%"></stop>
            <stop stop-color="#F74A5C" offset="51.2635191%"></stop>
            <stop stop-color="#F51D2C" offset="100%"></stop>
        </linearGradient>
    </defs>
    <g id="Page-1" stroke="none" stroke-width="1" fill="none" fill-rule="evenodd">
        <g id="logo" transform="translate(-20.000000, -20.000000)">
            <g id="Group-28-Copy-5" transform="translate(20.000000, 20.000000)">
                <g id="Group-27-Copy-3">
                    <g id="Group-25" fill-rule="nonzero">
                        <g id="2">
                            <path d="M91.5880863,4.17652823 L4.17996544,91.5127728 C-0.519240605,96.2081146 -0.519240605,103.791885 4.17996544,108.487227 L91.5880863,195.823472 C96.2872923,200.518814 103.877304,200.518814 108.57651,195.823472 L145.225487,159.204632 C149.433969,154.999611 149.433969,148.181924 145.225487,143.976903 C141.017005,139.771881 134.193707,139.771881 129.985225,143.976903 L102.20193,171.737352 C101.032305,172.906015 99.2571609,172.906015 98.0875359,171.737352 L28.285908,101.993122 C27.1162831,100.824459 27.1162831,99.050775 28.285908,97.8821118 L98.0875359,28.1378823 C99.2571609,26.9692191 101.032305,26.9692191 102.20193,28.1378823 L129.985225,55.8983314 C134.193707,60.1033528 141.017005,60.1033528 145.225487,55.8983314 C149.433969,51.69331 149.433969,44.8756232 145.225487,40.6706018 L108.58055,4.05574592 C103.862049,-0.537986846 96.2692618,-0.500797906 91.5880863,4.17652823 Z" id="Shape" fill="url(#linearGradient-1)"></path>
                            <path d="M91.5880863,4.17652823 L4.17996544,91.5127728 C-0.519240605,96.2081146 -0.519240605,103.791885 4.17996544,108.487227 L91.5880863,195.823472 C96.2872923,200.518814 103.877304,200.518814 108.57651,195.823472 L145.225487,159.204632 C149.433969,154.999611 149.433969,148.181924 145.225487,143.976903 C141.017005,139.771881 134.193707,139.771881 129.985225,143.976903 L102.20193,171.737352 C101.032305,172.906015 99.2571609,172.906015 98.0875359,171.737352 L28.285908,101.993122 C27.1162831,100.824459 27.1162831,99.050775 28.285908,97.8821118 L98.0875359,28.1378823 C100.999864,25.6271836 105.751642,20.541824 112.729652,19.3524487 C117.915585,18.4685261 123.585219,20.4140239 129.738554,25.1889424 C125.624663,21.0784292 118.571995,14.0340304 108.58055,4.05574592 C103.862049,-0.537986846 96.2692618,-0.500797906 91.5880863,4.17652823 Z" id="Shape" fill="url(#linearGradient-2)"></path>
                        </g>
                        <path d="M153.685633,135.854579 C157.894115,140.0596 164.717412,140.0596 168.925894,135.854579 L195.959977,108.842726 C200.659183,104.147384 200.659183,96.5636133 195.960527,91.8688194 L168.690777,64.7181159 C164.472332,60.5180858 157.646868,60.5241425 153.435895,64.7316526 C149.227413,68.936674 149.227413,75.7543607 153.435895,79.9593821 L171.854035,98.3623765 C173.02366,99.5310396 173.02366,101.304724 171.854035,102.473387 L153.685633,120.626849 C149.47715,124.83187 149.47715,131.649557 153.685633,135.854579 Z" id="Shape" fill="url(#linearGradient-3)"></path>
                    </g>
                    <ellipse id="Combined-Shape" fill="url(#linearGradient-4)" cx="100.519339" cy="100.436681" rx="23.6001926" ry="23.580786"></ellipse>
                </g>
            </g>
        </g>
    </g>
</svg>
